packages/foundations/assets/icons/functional/images/medical/mask_28.svg

<svg width="28" height="28" viewBox="0 0 28 28" fill="none" xmlns="http://www.w3.org/2000/svg">
<g clip-path="url(#clip0_186_213)">
<path fill-rule="evenodd" clip-rule="evenodd" d="M1.75 17.5219C1.75 17.0386 2.14175 16.6464 2.625 16.6469L3.87889 16.648C4.98326 15.4566 9.4631 13.1442 14.0087 13.1442C18.5537 13.1442 23.0202 15.4576 24.1242 16.6478L25.375 16.6469C25.8582 16.6465 26.25 17.0386 26.25 17.5219C26.25 18.0051 25.8582 18.3964 25.375 18.3969L24.2286 18.3978C22.5766 22.5739 18.5392 25.3564 14.007 25.375C9.47192 25.3579 5.43083 22.5757 3.77559 18.3978L2.625 18.3969C2.14175 18.3964 1.75 18.0051 1.75 17.5219ZM3.507 13.118C3.507 7.32288 8.20488 2.625 14 2.625C19.7951 2.625 24.493 7.32288 24.493 13.118C24.493 13.6094 24.1002 13.993 23.618 13.993C23.1348 13.993 22.743 13.6013 22.743 13.118C22.743 8.2894 18.8286 4.375 14 4.375C9.17137 4.375 5.257 8.2894 5.257 13.118C5.257 13.6013 4.86525 13.993 4.382 13.993C3.89875 13.993 3.507 13.6013 3.507 13.118ZM5.3655 17.6365C6.71297 21.2382 10.1545 23.6251 14 23.6251C17.8455 23.6251 21.287 21.2382 22.6345 17.6365C20.0852 15.9054 17.0879 14.9524 14.007 14.8934C10.9219 14.9533 7.92032 15.9061 5.3655 17.6365ZM10.2445 18.6432C9.81862 18.5122 9.63493 18.1772 9.63493 17.8373C9.63493 17.3854 9.95985 16.9249 10.4721 16.9249C10.5622 16.9249 10.6581 16.9391 10.759 16.9702C11.8159 17.2935 12.909 17.4551 14.0022 17.4551C15.0953 17.4551 16.1885 17.2935 17.2454 16.9702C17.3439 16.9399 17.4379 16.926 17.5265 16.926C18.0385 16.926 18.3714 17.39 18.3714 17.8438C18.3714 18.1805 18.1882 18.5114 17.759 18.6432C16.5435 19.0179 15.2789 19.2087 14.007 19.2093C12.7316 19.209 11.4635 19.0182 10.2445 18.6432ZM12.1214 22.0859C11.6237 22.0035 11.397 21.6243 11.397 21.2409C11.397 20.7601 11.7533 20.2727 12.3786 20.3551C12.9163 20.434 13.4584 20.4736 14.0004 20.4736C14.5425 20.4736 15.0845 20.434 15.6222 20.3551C16.2621 20.247 16.627 20.7444 16.627 21.2349C16.627 21.6279 16.393 22.0164 15.8786 22.0859C15.2587 22.1782 14.6329 22.2247 14.0061 22.225C13.3753 22.225 12.7454 22.1785 12.1214 22.0859Z" fill="#1A1C1F"/>
</g>
<defs>
<clipPath id="clip0_186_213">
<rect width="28" height="28" fill="white"/>
</clipPath>
</defs>
</svg>

<svg xmlns="http://www.w3.org/2000/svg" width="28" height="28" fill="none"><g clip-path="url(#a)"><path fill="#1A1C1F" fill-rule="evenodd" d="M1.75 17.522c0-.483.392-.876.875-.875l1.254.001c1.104-1.191 5.584-3.504 10.13-3.504 4.545 0 9.011 2.314 10.115 3.504l1.251-.001a.875.875 0 1 1 0 1.75h-1.146a11.04 11.04 0 0 1-10.222 6.978 11.05 11.05 0 0 1-10.231-6.977l-1.151-.001a.875.875 0 0 1-.875-.875m1.757-4.404C3.507 7.323 8.205 2.625 14 2.625s10.493 4.698 10.493 10.493a.875.875 0 1 1-1.75 0 8.743 8.743 0 0 0-17.486 0 .875.875 0 1 1-1.75 0m1.858 4.519a9.219 9.219 0 0 0 17.27 0 15.9 15.9 0 0 0-8.628-2.744 15.96 15.96 0 0 0-8.641 2.744m4.88 1.006a.816.816 0 0 1-.61-.806c0-.452.325-.912.837-.912q.135 0 .287.045a11.1 11.1 0 0 0 6.486 0 1 1 0 0 1 .281-.044c.512 0 .845.464.845.918 0 .336-.183.667-.612.8a12.76 12.76 0 0 1-7.514 0m1.876 3.443c-.497-.082-.724-.462-.724-.845 0-.48.356-.968.982-.886a11.2 11.2 0 0 0 3.243 0c.64-.108 1.005.39 1.005.88 0 .393-.234.781-.748.85a12.8 12.8 0 0 1-3.758 0" clip-rule="evenodd"/></g><defs><clipPath id="a"><path fill="#fff" d="M0 0h28v28H0z"/></clipPath></defs></svg>
